64x64/apps/lutris_x-plane-11.svg

<svg width="64" height="64" version="1.1" xmlns="http://www.w3.org/2000/svg">
 <circle cx="32" cy="33" r="28" style="opacity:.2"/>
 <circle cx="32" cy="32" r="28" style="fill:#07314a"/>
 <path d="M 32,4 A 28,28 0 0 0 4,32 28,28 0 0 0 4.0215,32.586 28,28 0 0 1 32,5 28,28 0 0 1 59.979,32.414 28,28 0 0 0 60,32 28,28 0 0 0 32,4 Z" style="fill:#f4f4f7;opacity:.1"/>
 <path d="m7 16h22l6 6 6-6h19l-17 17 14 17h-22l-6-6-6 6h-19l17-17z" style="opacity:.2"/>
 <path d="m7 15h22l6 6 6-6h19l-17 17 14 17h-22l-6-6-6 6h-19l17-17z" style="fill:#21b0df"/>
 <path d="m7 15 0.8242188 1h21.175781l6 6 6-6h18l1-1h-19l-6 6-6-6h-22zm13.548828 17.451172-16.548828 16.548828h1l16-16-0.451172-0.548828zm22.902344 0.097656-0.451172 0.451172 13.175781 16h0.824219l-13.548828-16.451172z" style="fill:#f4f4f7;opacity:.2"/>
</svg>

<svg width="64" height="64" xmlns="http://www.w3.org/2000/svg"><circle cx="32" cy="33" r="28" style="opacity:.2"/><circle cx="32" cy="32" r="28" style="fill:#07314a"/><path d="M32 4A28 28 0 0 0 4 32a28 28 0 0 0 .021.586A28 28 0 0 1 32 5a28 28 0 0 1 27.979 27.414A28 28 0 0 0 60 32 28 28 0 0 0 32 4z" style="fill:#f4f4f7;opacity:.1"/><path d="M7 16h22l6 6 6-6h19L43 33l14 17H35l-6-6-6 6H4l17-17z" style="opacity:.2"/><path d="M7 15h22l6 6 6-6h19L43 32l14 17H35l-6-6-6 6H4l17-17z" style="fill:#21b0df"/><path d="m7 15 .824 1H29l6 6 6-6h18l1-1H41l-6 6-6-6H7zm13.549 17.451L4 49h1l16-16-.451-.549zm22.902.098L43 33l13.176 16H57L43.451 32.549z" style="fill:#f4f4f7;opacity:.2"/></svg>
